X:1
T:Title
%%score ( 1 2 ) 3
L:1/8
Q:1/4=80
M:3/4
K:Bb
V:1 treble nm="Strings 1, Treble"
V:2 treble 
V:3 bass nm="Strings 1, Bass"
V:1
 z2 z [DF] [B,D][CE] | [DF]3 [Fd] [Ec][DB] | [DF]3 [DB] [CA][DB] | [Ec]3 [Ge] [Fd][Ec] | %4
w: 1.~There's~ One~ a|bove~ all~ earth ly~|friends~ Whose~ love~ all~|earth ly~ love~ tran|
 [DB]3 [DF] [B,D][CE] | [DF]3 [DB] [Ec][DB] | [EG]3 [EB] [EA][EG] | [DF]3 [DF] [EG][EA] | %8
w: scends,~ It~ is~ my~|Lord~ and~ Christ~ di|vine,~ My~ Lord~ be|cause~ I~ know~ He's~|
[M:4/4] z4 z2 c2- | c4 z2 B2- | B4 z2 c2- | c4 z2 d2- | d4 z2 d2- | d4 z2 G2- | G4 z4 | z8 | z8 |] %17
w: |||||||||
V:2
 x6 | x6 | x6 | x6 | x6 | x6 | x6 | x6 |[M:4/4] [DB]3 B AB z A | AAA[Ge] [Fd][Ec]DD | EEDB AB z A | %11
 AAA[Ge] [Fd][Ec]FF | FFFF =EF z F | FFFd cB z E | EEE[EB] [EA][EG] [DF]2- | %15
 [DF][FB] [EB]2 [EA]2 [DB]2- | [DB]4 z4 |] %17
V:3
 z2 z [B,,B,] [B,,F,][B,,F,] | [B,,B,]3 [B,,B,] [B,,B,][B,,B,] | [B,,B,]3 [B,,F,] [B,,F,][B,,F,] | %3
 [F,A,]3 [F,A,] [F,A,][F,A,] | [B,,B,]3 [B,,B,] [B,,F,][B,,F,] | [B,,B,]3 [B,,B,] [B,,B,][B,,B,] | %6
 [E,B,]3 [E,G,] [E,A,][E,B,] | [F,B,]3 [F,B,] [F,C][F,C] |[M:4/4] [B,,B,]4 z2 z [F,C] | %9
 [A,C]C .[F,C]2 z2 z [B,,F,] | [B,,G,][B,,G,] .[B,,F,]2 z2 z [F,C] | [A,C]C .[F,C]2 z2 z [B,,B,] | %12
 [B,,B,][B,,B,] .[B,,B,]2 z2 z [B,,B,] | [B,,B,][B,,B,] .[B,,B,]2 z2 z [E,B,] | %14
 [E,B,][E,B,][E,B,][E,G,] [E,A,][E,B,] [F,B,]2- | [F,B,][F,D] [F,C]2 [F,C]2 [B,,B,]2- | %16
 [B,,B,]4 z4 |] %17

